img/svg/cpp.svg

<svg xmlns="http://www.w3.org/2000/svg" fill="#000000" viewBox="4 2 42 46"><path d="M 43.910156 12.003906 L 27.070313 2.539063 C 25.792969 1.824219 24.207031 1.824219 22.929688 2.539063 L 6.089844 12.003906 C 4.800781 12.726563 4 14.082031 4 15.535156 L 4 34.464844 C 4 35.917969 4.800781 37.273438 6.089844 37.996094 L 22.929688 47.460938 C 23.570313 47.820313 24.285156 48 25 48 C 25.714844 48 26.429688 47.820313 27.070313 47.460938 L 43.910156 37.996094 C 45.199219 37.273438 46 35.917969 46 34.464844 L 46 15.535156 C 46 14.082031 45.199219 12.726563 43.910156 12.003906 Z M 25 37 C 18.382813 37 13 31.617188 13 25 C 13 18.382813 18.382813 13 25 13 C 28.78125 13 32.273438 14.753906 34.542969 17.742188 L 30.160156 20.277344 C 28.84375 18.835938 26.972656 18 25 18 C 21.140625 18 18 21.140625 18 25 C 18 28.859375 21.140625 32 25 32 C 26.972656 32 28.84375 31.164063 30.160156 29.722656 L 34.542969 32.257813 C 32.273438 35.246094 28.78125 37 25 37 Z M 37 26 L 35 26 L 35 28 L 33 28 L 33 26 L 31 26 L 31 24 L 33 24 L 33 22 L 35 22 L 35 24 L 37 24 Z M 44 26 L 42 26 L 42 28 L 40 28 L 40 26 L 38 26 L 38 24 L 40 24 L 40 22 L 42 22 L 42 24 L 44 24 Z"/></svg>

<svg xmlns="http://www.w3.org/2000/svg" fill="#000000" viewBox="4 2 42 46" xmlns:v="https://vecta.io/nano"><path d="M43.91 12.004L27.07 2.539c-1.277-.715-2.863-.715-4.141 0L6.09 12.004C4.801 12.727 4 14.082 4 15.535v18.93c0 1.453.801 2.809 2.09 3.531l16.84 9.465a4.23 4.23 0 0 0 4.141 0l16.84-9.465c1.289-.723 2.09-2.078 2.09-3.531v-18.93c0-1.453-.801-2.809-2.09-3.531zM25 37c-6.617 0-12-5.383-12-12s5.383-12 12-12a11.93 11.93 0 0 1 9.543 4.742l-4.383 2.535C28.844 18.836 26.973 18 25 18a7.01 7.01 0 0 0-7 7 7.01 7.01 0 0 0 7 7c1.973 0 3.844-.836 5.16-2.277l4.383 2.535A11.93 11.93 0 0 1 25 37zm12-11h-2v2h-2v-2h-2v-2h2v-2h2v2h2zm7 0h-2v2h-2v-2h-2v-2h2v-2h2v2h2z"/></svg>
